X: 1
T: Da Sixereen
C: Tom Anderson
O: Shetland 1947
R: slow reel, hornpipe, strathspey
Z: John Chambers <jc@trillian.mit.edu>
N: A sixereen is a 6-oared Norse-style boat used in the Shetlands.
M: 4/4
L: 1/8
K: D
|: a>g \
|  "D"f>e d<B A2 F2 | "G"B>A G<F "A7"E2 A>G | "D"F>G A<d "E7"^G<B e>d | "A"c2 A2 A2 a>g |
|  "D"f>e d<B A2 F2 | "G"B>A G<F "A7"E2 A>G | "D"F>G A<d "A7"A,>C E<G | "D"F2 D2 D2 :|
[| f>g \
|  "D"a>A d<e f2 e>f | "A"g>A c<e g2 f>e | "Bm"d<f B<d "E7"^G<B e>d | "A"c2 A2 A2 f>g |
|  "D"a>A d<e f2 e>f | "A"g>A c<e g2 f>e | "D"f<a  d<a "A7"e<a c<e |  "D"f2 d2 d2 f>g ||
|| "D"a>A d<e f2 e>f | "A"g>A c<e g2 f>e | "Bm"d<f B<d "E7"^G<B e>d | "A"c2 A2 A2 a>g |
|  "D"f>e d<B A2 F2 | "G"B>A G<F "A7"E2 A>G | "D"F>G A<d "A7"A,>C E<G | "D"F2 D2 D2 |]
